X:1
T:The Connaught Man's Rambles
C:Traditional
M:6/8
L:1/8
Q:3/8=120
K:D
A | F A A D A F | B A B D A G | F A A A f e | D B B B A G |
F A A D A F | B A B d e f | g f e d f e | D B B B3 |]
